X: 7270
T: Clare, The
R: reel
M: 4/4
K: Fmajor
|:FDCD G2FD|FDCA ~B2AG|FDCD G2FG|ABGA F4:|
|:Acdf cdAG|Acdf ~c3 A|Acdf cdAG|FDCD F4:|

